svg/l/AF.svg

<svg width="32" height="24" viewBox="0 0 32 24" fill="none" xmlns="http://www.w3.org/2000/svg">
<g clip-path="url(#clip0_270_67316)">
<rect width="32" height="24" fill="white"/>
<path fill-rule="evenodd" clip-rule="evenodd" d="M22 0H32V24H22V0Z" fill="#67BD38"/>
<path fill-rule="evenodd" clip-rule="evenodd" d="M10 0H22V24H10V0Z" fill="#D51700"/>
<path fill-rule="evenodd" clip-rule="evenodd" d="M0 0H10V24H0V0Z" fill="#272727"/>
<path fill-rule="evenodd" clip-rule="evenodd" d="M12.4877 7.97687L12.8337 8.19402C12.2571 9.16451 11.8698 10.0538 11.6695 10.8622C11.7542 10.9404 11.8073 11.0088 11.8616 11.1028C12.018 11.3738 12.1496 11.6368 12.2562 11.892L11.7964 12.0878C11.7242 11.915 11.6391 11.7374 11.5412 11.5549C11.4943 11.9492 11.4975 12.3219 11.5505 12.6728C11.6346 12.6814 11.7052 12.6991 11.7869 12.7288C12.0809 12.8358 12.3508 12.9528 12.5965 13.0797L12.3701 13.5253C12.1606 13.417 11.9305 13.316 11.6798 13.2222L11.6848 13.2374C11.8985 13.8833 12.2256 14.4776 12.667 15.0205C12.736 15.0056 12.8002 15 12.8754 15C13.1882 15 13.4818 15.0176 13.7562 15.0528L13.6958 15.549C13.509 15.525 13.3115 15.5098 13.1033 15.5034C13.4999 15.9003 13.9655 16.2663 14.5005 16.6016L14.2895 16.9574C13.626 16.5416 13.0614 16.078 12.5962 15.5669C12.5356 15.5906 12.4618 15.6219 12.3678 15.663L12.3325 15.6783C12.7385 16.104 13.2185 16.4955 13.773 16.853L13.5576 17.206C12.9168 16.7929 12.3683 16.334 11.9127 15.8296C11.6952 15.8854 11.5118 15.8843 11.2973 15.8213L11.4308 15.3405C11.463 15.35 11.4946 15.357 11.5263 15.3615C11.1032 14.7985 10.7844 14.1845 10.5707 13.5199C10.5329 13.4025 10.5006 13.283 10.4736 13.1614C10.3079 13.1298 10.1681 13.0676 10.0231 12.9609L10.313 12.5547C10.338 12.5731 10.3632 12.5894 10.3892 12.6036C10.3373 11.9912 10.4088 11.33 10.6029 10.6202C10.4814 10.4803 10.407 10.3353 10.3612 10.1468L10.786 10.0371C11.0149 9.38877 11.3387 8.70275 11.7566 7.9791L12.1053 8.19178C11.6495 8.98088 11.3119 9.71805 11.0913 10.4034C11.1531 10.4595 11.2287 10.5196 11.3214 10.5883C11.5429 9.78224 11.9323 8.9117 12.4877 7.97687ZM11.1981 11.1185C11.1532 11.0835 11.0992 11.0431 11.0336 10.9947C11.0021 10.9715 10.972 10.9489 10.9431 10.9268C10.7886 11.5626 10.7431 12.1502 10.8055 12.6895C10.88 12.6901 10.9643 12.6869 11.0617 12.6808L11.141 12.6759C11.0748 12.1893 11.0941 11.6702 11.1981 11.1185ZM11.0832 13.1782C11.1426 13.1745 11.1945 13.1715 11.2403 13.1694C11.2586 13.2374 11.2789 13.3048 11.3009 13.3715C11.5154 14.0198 11.8354 14.6183 12.2601 15.167L12.1774 15.2029C12.1065 15.2339 12.0426 15.2604 11.9842 15.2824C11.5194 14.7081 11.1769 14.0772 10.9556 13.3891C10.9342 13.3226 10.9147 13.2552 10.8972 13.187C10.9556 13.1854 11.0174 13.1824 11.0832 13.1782Z" fill="#F7FCFF"/>
<path fill-rule="evenodd" clip-rule="evenodd" d="M19.499 7.97687L19.153 8.19402C19.7296 9.16451 20.1169 10.0538 20.3172 10.8622C20.2325 10.9404 20.1794 11.0088 20.1251 11.1028C19.9687 11.3738 19.8371 11.6368 19.7305 11.892L20.1903 12.0878C20.2625 11.915 20.3476 11.7374 20.4455 11.5549C20.4924 11.9492 20.4892 12.3219 20.4362 12.6728C20.3521 12.6814 20.2815 12.6991 20.1998 12.7288C19.9058 12.8358 19.6359 12.9528 19.3902 13.0797L19.6166 13.5253C19.8261 13.417 20.0562 13.316 20.3069 13.2222L20.3019 13.2374C20.0882 13.8833 19.7611 14.4776 19.3197 15.0205C19.2507 15.0056 19.1865 15 19.1113 15C18.7985 15 18.5049 15.0176 18.2305 15.0528L18.2909 15.549C18.4776 15.525 18.6752 15.5098 18.8834 15.5034C18.4868 15.9003 18.0212 16.2663 17.4861 16.6016L17.6972 16.9574C18.3607 16.5416 18.9253 16.078 19.3905 15.5669C19.4511 15.5906 19.5249 15.6219 19.6189 15.663L19.6542 15.6783C19.2482 16.104 18.7682 16.4955 18.2137 16.853L18.4291 17.206C19.0699 16.7929 19.6184 16.334 20.074 15.8296C20.2915 15.8854 20.4749 15.8843 20.6894 15.8213L20.5559 15.3405C20.5236 15.35 20.4921 15.357 20.4604 15.3615C20.8835 14.7985 21.2023 14.1845 21.416 13.5199C21.4538 13.4025 21.4861 13.283 21.5131 13.1614C21.6788 13.1298 21.8185 13.0676 21.9636 12.9609L21.6737 12.5547C21.6487 12.5731 21.6235 12.5894 21.5975 12.6036C21.6494 11.9912 21.5779 11.33 21.3838 10.6202C21.5053 10.4803 21.5797 10.3353 21.6254 10.1468L21.2007 10.0371C20.9718 9.38877 20.648 8.70275 20.23 7.9791L19.8814 8.19178C20.3372 8.98088 20.6748 9.71805 20.8954 10.4034C20.8336 10.4595 20.758 10.5196 20.6653 10.5883C20.4438 9.78224 20.0544 8.9117 19.499 7.97687ZM20.7886 11.1185C20.8335 11.0835 20.8875 11.0431 20.9531 10.9947C20.9846 10.9715 21.0147 10.9489 21.0436 10.9268C21.198 11.5626 21.2436 12.1502 21.1811 12.6895C21.1067 12.6901 21.0224 12.6869 20.925 12.6808L20.8457 12.6759C20.9118 12.1893 20.8926 11.6702 20.7886 11.1185ZM20.9035 13.1782C20.8441 13.1745 20.7922 13.1715 20.7464 13.1694C20.728 13.2374 20.7078 13.3048 20.6858 13.3715C20.4712 14.0198 20.1513 14.6183 19.7266 15.167L19.8093 15.2029C19.8802 15.2339 19.9441 15.2604 20.0025 15.2824C20.4673 14.7081 20.8098 14.0772 21.0311 13.3891C21.0525 13.3226 21.072 13.2552 21.0895 13.187C21.0311 13.1854 20.9693 13.1824 20.9035 13.1782Z" fill="#F7FCFF"/>
<path fill-rule="evenodd" clip-rule="evenodd" d="M14.253 16.2641L13.1367 17.3687C13.1367 17.3687 14.0994 17.9582 15.9137 17.9582C17.728 17.9582 18.7844 17.3687 18.7844 17.3687L17.9358 16.2641C17.9358 16.2641 16.7795 16.7122 15.9606 16.7122C15.1416 16.7122 14.253 16.2641 14.253 16.2641Z" fill="#F7FCFF"/>
<path d="M14.2764 16.969C14.2764 16.969 15.2215 17.192 15.946 17.192C16.6705 17.192 17.6156 16.969 17.6156 16.969" stroke="#C00001" stroke-width="0.5"/>
<path fill-rule="evenodd" clip-rule="evenodd" d="M16.8919 9.45835C16.8919 9.89558 16.4926 10.25 16 10.25C15.5074 10.25 15.1081 9.89558 15.1081 9.45835C15.1081 9.02113 15.5074 8.66669 16 8.66669C16.4926 8.66669 16.8919 9.02113 16.8919 9.45835ZM16 10.25H15.0398L14.7753 10.4527H14.7238V8.86802H14.2373V10.4527H13.8108V10.723H14.2373V13.5806C14.1796 14.0371 14.0463 14.2952 13.8594 14.3849L12.8662 14.8614H18.8436L18.414 14.4321C18.0367 14.0551 17.8564 13.7652 17.8564 13.5965V10.723H18.027V10.4527H17.8564V8.86802H17.3699V10.4527H17.2127L16.8992 10.25H16ZM14.7238 10.723H17.3699V13.5965C17.3699 13.8282 17.4795 14.0797 17.6935 14.3614H14.5231C14.621 14.1643 14.6865 13.9186 14.7238 13.612V10.723ZM16.0811 12H15.027V14.0834H17.1351L16.0811 12Z" fill="#F7FCFF"/>
<path fill-rule="evenodd" clip-rule="evenodd" d="M17.1696 6.15619L17.1714 6.15922L17.171 6.15807L17.1696 6.15619ZM18.7108 6.69781L18.7117 6.7071L18.7111 6.70034L18.7108 6.69781ZM19.0101 6.7347L19.0116 6.73014L19.0109 6.73238L19.0101 6.7347ZM17.7983 7.34837L17.8039 7.34832L17.8013 7.34867L17.7983 7.34837Z" fill="#F7FCFF"/>
<path fill-rule="evenodd" clip-rule="evenodd" d="M12.9929 10.6681L12.7936 10.8115L12.9991 11.113C12.8231 11.1762 12.5401 11.3361 12.5401 11.712C12.5401 12.2575 12.3485 12.7044 12.3485 12.7044L12.9207 13.0719C12.9207 13.0719 12.9804 12.4357 13.1362 12.0738C13.2143 11.8924 13.3358 11.802 13.4377 11.7569L14.3272 13.0625L14.5264 12.9191L12.9929 10.6681Z" fill="#F7FCFF"/>
<path fill-rule="evenodd" clip-rule="evenodd" d="M19.0712 10.6681L19.2705 10.8115L19.065 11.113C19.241 11.1762 19.524 11.3361 19.524 11.712C19.524 12.2575 19.7156 12.7044 19.7156 12.7044L19.1434 13.0719C19.1434 13.0719 19.0837 12.4357 18.9279 12.0738C18.8498 11.8924 18.7282 11.802 18.6264 11.7569L17.7369 13.0625L17.5377 12.9191L19.0712 10.6681Z" fill="#F7FCFF"/>
</g>
<defs>
<clipPath id="clip0_270_67316">
<rect width="32" height="24" fill="white"/>
</clipPath>
</defs>
</svg>

<svg width="32" height="24" fill="none" xmlns="http://www.w3.org/2000/svg">
  <mask id="a" maskUnits="userSpaceOnUse" x="0" y="0" width="32" height="24">
    <path fill="#fff" d="M0 0h32v24H0z"/>
  </mask>
  <g mask="url(#a)">
    <path fill-rule="evenodd" clip-rule="evenodd" d="M22 0h10v24H22V0z" fill="#67BD38"/>
    <path fill-rule="evenodd" clip-rule="evenodd" d="M10 0h12v24H10V0z" fill="#D51700"/>
    <path fill-rule="evenodd" clip-rule="evenodd" d="M0 0h10v24H0V0z" fill="#272727"/>
    <path fill-rule="evenodd" clip-rule="evenodd" d="M12.488 7.977l.346.217c-.577.97-.964 1.86-1.165 2.668a.946.946 0 01.193.24c.156.272.288.535.394.79l-.46.196a6.128 6.128 0 00-.255-.533 4.17 4.17 0 00.01 1.118.937.937 0 01.236.056c.294.107.564.224.81.35l-.227.446a6.55 6.55 0 00-.69-.303l.005.015c.213.646.54 1.24.982 1.784a.95.95 0 01.208-.021c.313 0 .607.018.881.053l-.06.496a6.134 6.134 0 00-.593-.046c.397.397.863.763 1.398 1.099l-.211.355a8.05 8.05 0 01-1.694-1.39 6.55 6.55 0 00-.228.096l-.036.015c.406.426.886.817 1.441 1.175l-.215.353a8.147 8.147 0 01-1.645-1.376 1.094 1.094 0 01-.616-.009l.134-.48a.671.671 0 00.095.02 6.21 6.21 0 01-.955-1.841 3.993 3.993 0 01-.097-.359 1.066 1.066 0 01-.45-.2l.289-.406a.89.89 0 00.076.049c-.052-.613.02-1.274.214-1.984a1.069 1.069 0 01-.242-.473l.425-.11a12.53 12.53 0 01.97-2.058l.35.213c-.457.789-.794 1.526-1.015 2.211.062.056.138.117.23.185.222-.806.611-1.676 1.167-2.611zm-1.29 3.141a8.052 8.052 0 00-.255-.191c-.154.636-.2 1.223-.137 1.763.074 0 .158-.003.256-.01l.079-.004a4.853 4.853 0 01.057-1.558zm-.115 2.06a9.82 9.82 0 01.157-.009c.019.068.039.136.06.202.215.649.535 1.247.96 1.796l-.083.036a6.44 6.44 0 01-.193.08 5.818 5.818 0 01-1.028-1.894 3.498 3.498 0 01-.059-.202l.186-.009zm8.416-5.201l-.346.217c.577.97.964 1.86 1.164 2.668a.946.946 0 00-.192.24 6.925 6.925 0 00-.395.79l.46.196a6.38 6.38 0 01.255-.533 4.17 4.17 0 01-.009 1.118.937.937 0 00-.236.056 6.927 6.927 0 00-.81.35l.227.446c.21-.108.44-.209.69-.303l-.005.015a5.591 5.591 0 01-.982 1.784.95.95 0 00-.209-.021 6.95 6.95 0 00-.88.053l.06.496c.187-.024.384-.04.592-.046a7.874 7.874 0 01-1.397 1.099l.211.355a8.05 8.05 0 001.694-1.39c.06.024.134.055.228.096l.035.015a7.871 7.871 0 01-1.44 1.175l.215.353a8.147 8.147 0 001.645-1.376c.217.055.4.054.615-.009l-.133-.48a.671.671 0 01-.096.02 6.21 6.21 0 00.956-1.841c.038-.117.07-.237.097-.359a1.05 1.05 0 00.45-.2l-.29-.406a.671.671 0 01-.075.049c.051-.613-.02-1.274-.214-1.984.121-.14.196-.285.241-.473l-.424-.11a12.422 12.422 0 00-.971-2.058l-.349.213c.456.789.794 1.526 1.014 2.211a3.028 3.028 0 01-.23.185c-.221-.806-.61-1.676-1.166-2.611zm1.29 3.141a8.052 8.052 0 01.255-.191c.154.636.2 1.223.137 1.763-.074 0-.159-.003-.256-.01l-.08-.004a4.856 4.856 0 00-.056-1.558zm.114 2.06a9.82 9.82 0 00-.157-.009 5.991 5.991 0 01-1.02 1.998l.083.036c.071.03.135.057.194.08a5.818 5.818 0 001.028-1.894c.021-.066.041-.134.059-.202a5.139 5.139 0 01-.186-.009z" fill="#F7FCFF"/>
    <path fill-rule="evenodd" clip-rule="evenodd" d="M14.253 16.264l-1.116 1.105s.962.59 2.777.59c1.814 0 2.87-.59 2.87-.59l-.848-1.105s-1.157.448-1.975.448c-.82 0-1.708-.448-1.708-.448z" fill="#F7FCFF"/>
    <path d="M14.276 16.969s.946.223 1.67.223c.725 0 1.67-.223 1.67-.223" stroke="#C00001" stroke-width=".5"/>
    <path fill-rule="evenodd" clip-rule="evenodd" d="M16.892 9.458c0 .438-.4.792-.892.792-.493 0-.892-.354-.892-.792 0-.437.4-.791.892-.791.493 0 .892.354.892.791zM16 10.25h-.96l-.265.203h-.051V8.868h-.487v1.585h-.426v.27h.426v2.858c-.057.456-.19.714-.378.804l-.993.476h5.978l-.43-.429c-.377-.377-.558-.667-.558-.835v-2.874h.171v-.27h-.17V8.868h-.487v1.585h-.157l-.314-.203H16zm-1.276.473h2.646v2.873c0 .232.11.484.323.765h-3.17c.098-.197.164-.442.2-.749v-2.889zM16.08 12h-1.054v2.083h2.108L16.081 12zm1.09-5.844l.001.003-.001-.003zm1.54.542l.002.01V6.7l-.001-.002zm.3.037l.002-.005-.001.002v.003zm-1.212.613h.006-.006z" fill="#F7FCFF"/>
    <path fill-rule="evenodd" clip-rule="evenodd" d="M12.993 10.668l-.2.144.206.301c-.176.063-.459.223-.459.599a2.8 2.8 0 01-.191.992l.572.368s.06-.636.215-.998a.584.584 0 01.302-.317l.89 1.306.198-.144-1.533-2.25zm6.078 0l.2.144-.206.301c.176.063.459.223.459.599 0 .546.192.992.192.992l-.573.368s-.06-.636-.215-.998a.584.584 0 00-.302-.317l-.89 1.306-.198-.144 1.533-2.25z" fill="#F7FCFF"/>
  </g>
</svg>
